images/alarm-stop.svg

<?xml version="1.0" encoding="utf-8"?>
<!-- Generated by IcoMoon.io -->
<!DOCTYPE svg PUBLIC "-//W3C//DTD SVG 1.1//EN" "http://www.w3.org/Graphics/SVG/1.1/DTD/svg11.dtd">
<svg version="1.1" xmlns="http://www.w3.org/2000/svg" xmlns:xlink="http://www.w3.org/1999/xlink" width="30" height="30" viewBox="0 0 30 30">
<g>
	<line stroke-width="1" x1="" y1="" x2="" y2="" stroke="#449FDB" opacity=""></line>
</g>
	<path d="M23.861 19.193v-0.019c-1.357-0.971-2.216-2.376-2.216-3.945 0-0.001 0-0.001 0-0.002v-1.336l-1.984 1.985v0.107c0.021 1.473 0.849 2.818 2.2 3.877h-2.2v0.007h-3.992l-2.009 2.009h9.397c0-0.001-0.001-0.002-0.001-0.002 0.799-0.016 1.443-0.666 1.443-1.469 0.001-0.503-0.253-0.946-0.638-1.212zM12.235 23.302c0.333 1.218 1.431 2.118 2.756 2.118 1.477 0 2.68-1.115 2.846-2.548h-5.173l-0.429 0.43zM23.333 5.746l-2.513 2.512c-0.675-0.985-1.729-1.78-3.010-2.258-0.273-1.306-1.431-2.288-2.818-2.288-1.391 0-2.55 0.985-2.82 2.295-2.254 0.848-3.818 2.673-3.818 4.793v0 4.427c0 0.001 0 0.001 0 0.002 0 1.569-0.859 2.974-2.215 3.945v0.019c-0.386 0.266-0.639 0.709-0.639 1.212 0 0.803 0.645 1.453 1.443 1.468 0 0-0.001 0.002-0.001 0.003h0.26l-1.811 1.812c0.402 0.61 0.925 1.134 1.536 1.536l17.942-17.943c-0.402-0.611-0.926-1.134-1.536-1.535zM9.219 19.86h-1.080c1.351-1.060 2.179-2.404 2.2-3.877v-5.184h0.027c0.002-1.87 2.076-3.384 4.634-3.384 2.035 0 3.744 0.964 4.367 2.297l-10.148 10.148z" fill="#000000"></path>
</svg>

<?xml version="1.0" encoding="UTF-8" standalone="no"?>
<!-- Created with Inkscape (http://www.inkscape.org/) -->

<svg
   xmlns:dc="http://purl.org/dc/elements/1.1/"
   xmlns:cc="http://creativecommons.org/ns#"
   xmlns:rdf="http://www.w3.org/1999/02/22-rdf-syntax-ns#"
   xmlns:svg="http://www.w3.org/2000/svg"
   xmlns="http://www.w3.org/2000/svg"
   xmlns:inkscape="http://www.inkscape.org/namespaces/inkscape"
   version="1.1"
   width="30"
   height="30"
   viewBox="0 0 30 30"
   id="svg2">
  <metadata
     id="metadata10">
    <rdf:RDF>
      <cc:Work
         rdf:about="">
        <dc:format>image/svg+xml</dc:format>
        <dc:type
           rdf:resource="http://purl.org/dc/dcmitype/StillImage" />
      </cc:Work>
    </rdf:RDF>
  </metadata>
  <defs
     id="defs8" />
  <path
     d="m 23.86,19.193 v -0.02 c -1.356,-0.97 -2.215,-2.375 -2.215,-3.944 v -1.34 l -1.985,1.98 v 0.1 c 0.027,1.474 0.85,2.82 2.2,3.878 h -2.2 v 0.006 h -3.99 l -2.01,2.01 h 9.4 v -0.004 c 0.8,-0.014 1.44,-0.664 1.44,-1.47 0,-0.5 -0.25,-0.943 -0.64,-1.21 z m -11.625,4.11 c 0.333,1.217 1.43,2.117 2.756,2.117 1.48,0 2.68,-1.115 2.85,-2.548 h -5.17 l -0.43,0.43 z M 23.333,5.745 20.82,8.258 C 20.145,7.273 19.09,6.478 17.81,6 17.537,4.694 16.38,3.712 14.992,3.712 c -1.39,0 -2.55,0.985 -2.82,2.295 C 9.918,6.855 8.354,8.68 8.354,10.8 v 4.43 c 0,1.568 -0.86,2.973 -2.215,3.944 v 0.02 c -0.39,0.265 -0.64,0.708 -0.64,1.21 0,0.804 0.64,1.454 1.44,1.47 v 0.002 h 0.26 l -1.81,1.812 c 0.4,0.61 0.92,1.134 1.53,1.536 L 24.87,7.28 C 24.467,6.67 23.943,6.147 23.333,5.746 z M 9.22,19.86 H 8.14 c 1.35,-1.06 2.178,-2.404 2.2,-3.877 V 10.8 h 0.026 C 10.368,8.93 12.442,7.415 15,7.415 c 2.035,0 3.744,0.964 4.367,2.297 L 9.22,19.86 z"
     inkscape:connector-curvature="0"
     id="path4" />
</svg>
